X: 1
T:Dark Island
R:
M:3/4
L:1/8
K:G
E2|A3 BA2|G3 AG2|EC3E2|D4GA|
B3 AG2|Bd3D2|B4d>B|A4E2|
A3 BA2|G3 AG2|EC3E2|D4GA|
B4d>B|A4B>A|G3 AG>F|G2B2c2|
d3 DD2|B2A2G2|EC3E2|D4GA|
B3 AG2|Bd3D2|B4d>B|A4E2|
A3 BA2|G3 AG2|EC3E2|D4GA|
B4d>B|A4B>A|G3 AG>F|G4 z2|]
